style-guide/assets/wds-icons-sound.svg

<svg xmlns="http://www.w3.org/2000/svg" xmlns:xlink="http://www.w3.org/1999/xlink" width="24" height="24" viewBox="0 0 24 24">
  <defs>
    <path id="sound-a" d="M15.739,17.0004094 C15.539,17.0004094 15.338,16.9404094 15.162,16.8164094 C14.712,16.4974094 14.605,15.8734094 14.924,15.4224094 C15.628,14.4284094 16,13.2444094 16,12.0004094 C16,10.7564094 15.628,9.5724094 14.924,8.5784094 C14.605,8.1274094 14.712,7.5034094 15.162,7.1844094 C15.613,6.8654094 16.237,6.9724094 16.556,7.4224094 C17.501,8.7564094 18,10.3404094 18,12.0004094 C18,13.6604094 17.501,15.2444094 16.556,16.5784094 C16.361,16.8544094 16.052,17.0004094 15.739,17.0004094 Z M19.929,21.0004094 C19.69,21.0004094 19.45,20.9144094 19.259,20.7414094 C18.849,20.3714094 18.818,19.7384094 19.189,19.3284094 C21.001,17.3274094 22,14.7254094 22,12.0004094 C22,9.2754094 21.001,6.6734094 19.189,4.6724094 C18.818,4.2624094 18.849,3.6294094 19.259,3.2594094 C19.668,2.8884094 20.301,2.9204094 20.671,3.3284094 C22.818,5.6994094 24,8.7784094 24,12.0004094 C24,15.2224094 22.818,18.3014094 20.671,20.6724094 C20.474,20.8894094 20.202,21.0004094 19.929,21.0004094 Z M2,15.0004094 L5,15.0004094 C5.265,15.0004094 5.519,15.1054094 5.707,15.2934094 L10,19.5864094 L10,4.4144094 L5.707,8.7074094 C5.519,8.8954094 5.265,9.0004094 5,9.0004094 L2,9.0004094 L2,15.0004094 Z M11,23.0004094 C10.739,23.0004094 10.484,22.8984094 10.293,22.7074094 L4.586,17.0004094 L1,17.0004094 C0.447,17.0004094 0,16.5534094 0,16.0004094 L0,8.0004094 C0,7.4474094 0.447,7.0004094 1,7.0004094 L4.586,7.0004094 L10.293,1.2934094 C10.579,1.0064094 11.007,0.921409403 11.383,1.0764094 C11.756,1.2304094 12,1.5964094 12,2.0004094 L12,22.0004094 C12,22.4044094 11.756,22.7704094 11.383,22.9244094 C11.259,22.9754094 11.129,23.0004094 11,23.0004094 Z"/>
  </defs>
  <use fill-rule="evenodd" xlink:href="#sound-a"/>
</svg>

<svg xmlns="http://www.w3.org/2000/svg" xmlns:xlink="http://www.w3.org/1999/xlink" viewBox="0 0 24 24">
  <defs>
    <path id="sound-a" d="M15.739 17a1 1 0 0 1-.815-1.578A5.885 5.885 0 0 0 16 12a5.885 5.885 0 0 0-1.076-3.422 1 1 0 0 1 1.632-1.156A7.874 7.874 0 0 1 18 12c0 1.66-.499 3.244-1.444 4.578a.997.997 0 0 1-.817.422zm4.19 4a1 1 0 0 1-.74-1.672A10.89 10.89 0 0 0 22 12a10.89 10.89 0 0 0-2.811-7.328 1 1 0 0 1 1.482-1.344A12.887 12.887 0 0 1 24 12c0 3.222-1.182 6.301-3.329 8.672a1 1 0 0 1-.742.328zM2 15h3a1 1 0 0 1 .707.293L10 19.586V4.414L5.707 8.707A1 1 0 0 1 5 9H2v6zm9 8a.999.999 0 0 1-.707-.293L4.586 17H1a1 1 0 0 1-1-1V8a1 1 0 0 1 1-1h3.586l5.707-5.707A1 1 0 0 1 12 2v20a1 1 0 0 1-1 1z"/>
  </defs>
  <use fill-rule="evenodd" xlink:href="#sound-a"/>
</svg>
